dist/img/svg/ic_clean-room.svg

<svg width="25" height="24" viewBox="0 0 25 24" fill="none" xmlns="http://www.w3.org/2000/svg">
<path fill-rule="evenodd" clip-rule="evenodd" d="M22.2219 6.58999C22.2873 6.69578 22.3244 6.81606 22.3296 6.93965C22.3296 6.95065 22.3334 6.96899 22.3334 6.96899V17.031C22.3332 17.1596 22.2986 17.2859 22.2329 17.3973C22.1673 17.5086 22.0729 17.6011 21.9593 17.6654L12.7075 22.9017C12.5937 22.9661 12.4647 23 12.3334 23C12.202 23 12.073 22.9661 11.9593 22.9017L2.70749 17.6654C2.59385 17.6011 2.49947 17.5086 2.43381 17.3973C2.36815 17.2859 2.33351 17.1596 2.33337 17.031V6.96899C2.33351 6.84038 2.36815 6.71407 2.43381 6.60272C2.49947 6.49138 2.59385 6.39892 2.70749 6.33461L11.9593 1.09825C12.073 1.03389 12.202 1 12.3334 1C12.4647 1 12.5937 1.03389 12.7075 1.09825L21.9555 6.33461C22.0649 6.39635 22.1565 6.48421 22.2219 6.58999ZM11.5852 12.627L3.82982 8.23774V16.5983L11.5852 20.9986V12.627ZM13.0816 12.627V20.9986L20.8369 16.6093V8.22674L13.0816 12.627ZM20.0703 7.09121L12.3334 2.7884L4.59641 7.06969L12.3334 11.3725L20.0703 7.09121Z" fill="#01AFD2"/>
</svg>

<svg width="25" height="24"   xmlns="http://www.w3.org/2000/svg"><path fill-rule="evenodd" clip-rule="evenodd" d="M22.222 6.59a.723.723 0 01.108.35c0 .01.003.029.003.029v10.062a.723.723 0 01-.374.634l-9.252 5.237a.76.76 0 01-.748 0l-9.252-5.237a.723.723 0 01-.374-.634V6.969a.722.722 0 01.374-.634l9.252-5.237a.76.76 0 01.748 0l9.248 5.237c.11.061.202.15.267.255zm-10.637 6.037L3.83 8.237v8.361l7.755 4.4v-8.371zm1.497 0v8.372l7.755-4.39V8.227l-7.755 4.4zm6.988-5.536l-7.737-4.303L4.596 7.07l7.737 4.303L20.07 7.09z" /></svg>
